X: 652
T: Home Brew Rag
C:Lowe Stokes
B: jims roots
M:C|
L:1/8
Q: 1/4=100
K:F
V:1 
cB ||"F"Ac2c- cdcA | ca2f- fcdc | Ac2A cdcA | c2d_e dcAG |
Ac2c- cdcA | ca2f- fcdc |"G7"a2g2- g2 a2 | "C7"g2e2d2cB |
"F"Ac2c- cdcA | ca2f- fcdc | Ac2A cdcA | c6fg |
"F"a2e"D"f- fcdA | "G7"c2^G"C"A- AFD2 | "C7"C4- CCDE | "F"F6 |]
% abcbook-tune_id 6298c25db1235a9524a4f46c


% abcbook-boost 0
% abcbook-tablature 
% abcbook-transpose 
% abcbook-lastupdated 1654178398814
% abcbook-soundfonts 
% abcbook-repeats 1


